icons/tauri.svg

<svg width="16" height="16" viewBox="0 0 16 16" fill="none" xmlns="http://www.w3.org/2000/svg">
<path d="M10 6.5C10 7.32843 9.32843 8 8.49999 8C7.67157 8 7 7.32843 7 6.5C7 5.67157 7.67157 5 8.49999 5C9.32843 5 10 5.67157 10 6.5Z" fill="#FFC131"/>
<path d="M6.5 8C5.67157 8 5 8.67157 5 9.5C5 10.3284 5.67157 11 6.5 11C7.32843 11 8 10.3284 8 9.5C8 8.67157 7.32843 8 6.5 8Z" fill="#24C8DB"/>
<path fill-rule="evenodd" clip-rule="evenodd" d="M10.8947 10.362C10.4081 10.6724 9.8688 10.8879 9.30605 11C9.42125 10.6722 9.48383 10.3201 9.48383 9.95357C9.48383 9.82062 9.47559 9.68957 9.4596 9.56089C9.70172 9.47767 9.93417 9.36591 10.1517 9.22717C10.675 8.89331 11.0896 8.41741 11.3455 7.85664C11.6014 7.29587 11.6879 6.67408 11.5944 6.06599C11.501 5.4579 11.2317 4.88936 10.8188 4.42871C10.4059 3.96807 9.86698 3.63489 9.26688 3.46922C8.66676 3.30355 8.03096 3.31244 7.43584 3.49481C6.84072 3.67717 6.31162 4.02528 5.9121 4.49728C5.95839 4.43356 5.86092 4.55773 5.9121 4.49728C5.29557 4.56488 4.55221 4.92344 4 5.18984C4.17975 4.62189 4.47157 4.09169 4.86153 3.63098C5.43008 2.95929 6.18302 2.46392 7.02992 2.20439C7.87682 1.94487 8.78162 1.93222 9.63562 2.16798C10.4896 2.40375 11.2565 2.87788 11.844 3.53342C12.4317 4.18896 12.815 4.99802 12.9479 5.86337C13.0809 6.72873 12.9579 7.61358 12.5936 8.4116C12.2295 9.20963 11.6395 9.88687 10.8947 10.362ZM4.05484 6.01872L5.18368 6.15556C5.21055 5.93961 5.25957 5.72799 5.32939 5.52377C4.88167 5.62518 4.45202 5.79212 4.05484 6.01872Z" fill="#FFC131"/>
<path fill-rule="evenodd" clip-rule="evenodd" d="M4.10493 5.64036C4.59518 5.32767 5.13881 5.11133 5.70605 5C5.57781 5.34368 5.5078 5.71514 5.5078 6.10274C5.5078 6.21868 5.51406 6.33317 5.52627 6.4459C5.28907 6.52861 5.06128 6.63874 4.84789 6.77485C4.32462 7.10861 3.91013 7.58438 3.65424 8.14499C3.39833 8.70561 3.3119 9.32722 3.40533 9.93514C3.49876 10.5431 3.76807 11.1114 4.1809 11.5719C4.59373 12.0325 5.13252 12.3656 5.73253 12.5312C6.33255 12.6968 6.96826 12.688 7.56329 12.5056C8.15831 12.3232 8.60054 11.9718 9 11.5C8.95349 11.5641 9.05142 11.4392 9 11.5C9.61694 11.4314 10.4479 11.0742 11 10.8066C10.8204 11.3761 10.5281 11.9077 10.1372 12.3695C9.56874 13.041 8.8159 13.5362 7.96914 13.7957C7.12237 14.0551 6.21771 14.0678 5.36385 13.8321C4.50998 13.5964 3.74324 13.1223 3.15575 12.467C2.56826 11.8116 2.18501 11.0028 2.05206 10.1377C1.91911 9.27258 2.0421 8.38798 2.40627 7.59018C2.77043 6.79238 3.36027 6.11532 4.10493 5.64036Z" fill="#24C8DB"/>
</svg>

<svg xmlns="http://www.w3.org/2000/svg" width="16" height="16" fill="none"><path fill="#FFC131" d="M10 6.5a1.5 1.5 0 1 1-3 0 1.5 1.5 0 0 1 3 0Z"/><path fill="#24C8DB" d="M6.5 8a1.5 1.5 0 1 0 0 3 1.5 1.5 0 0 0 0-3Z"/><path fill="#FFC131" fill-rule="evenodd" d="M10.895 10.362A4.64 4.64 0 0 1 9.306 11a3.15 3.15 0 0 0 .154-1.44 3.206 3.206 0 0 0 1.886-1.704 3.156 3.156 0 0 0-.527-3.427 3.242 3.242 0 0 0-1.552-.96 3.277 3.277 0 0 0-1.831.026 3.239 3.239 0 0 0-1.524 1.002c.046-.063-.051.06 0 0-.616.068-1.36.426-1.912.693.18-.568.472-1.098.862-1.559A4.609 4.609 0 0 1 7.03 2.204a4.663 4.663 0 0 1 2.606-.036c.854.236 1.62.71 2.208 1.365a4.518 4.518 0 0 1 1.104 2.33 4.49 4.49 0 0 1-.354 2.549 4.561 4.561 0 0 1-1.7 1.95Zm-6.84-4.343 1.129.137c.027-.216.076-.428.145-.632a4.641 4.641 0 0 0-1.274.495Z" clip-rule="evenodd"/><path fill="#24C8DB" fill-rule="evenodd" d="M4.105 5.64A4.639 4.639 0 0 1 5.706 5a3.148 3.148 0 0 0-.18 1.446 3.205 3.205 0 0 0-1.872 1.7 3.155 3.155 0 0 0 .527 3.426c.413.46.952.794 1.552.96.6.165 1.235.156 1.83-.026.595-.183 1.038-.534 1.437-1.006-.047.064.051-.06 0 0 .617-.069 1.448-.426 2-.693a4.526 4.526 0 0 1-.863 1.563 4.609 4.609 0 0 1-2.168 1.426 4.663 4.663 0 0 1-2.605.036 4.613 4.613 0 0 1-2.208-1.365 4.49 4.49 0 0 1-.75-4.877 4.561 4.561 0 0 1 1.699-1.95Z" clip-rule="evenodd"/></svg>
